!!!id: EG023b
!!!page: 57
!!!COM: Anonymous
!!!LYR: Anonymous
!!!PTL@@FR: Chansons Populaires du Canada
!!!OTL@@FR: Mon beau ruban gris (autre air)
!!!PUB: G. E. Desbarats
!!!YEM:
!!!PDT: 1865
!!!SMA:
!!!OMD:
!!!AGN-Laforte:
!!!AGN-type:
!!!AGN-rime:
**kern
*clefG2
*k[]
*a:
*M6/8
*
*
8a
8a
8a
=1
4a
8cc
4ee
8ee
=2
(4ee
8dd)
8b
8cc
8dd
!!LO:PB:g=original
=3
4ee
8dd
4cc
8b
=4
4a
8r
8a
8b
8cc
=5
4dd
8cc
4b/
8a
!!LO:PB:g=original
=6
4b
8b
8cc
8b/
8a
=7
4.b
4ee
8ee
=8
8dd
8cc
8b
8a
8g
8a
!!LO:PB:g=original
=9
8b
8cc
8dd
8ee
8ee
8ee
=10
4a
8a
8b
8cc
8dd
=11
8cc
8b
8cc
4a
8r
==||
*
*
==|
*-
